assets/81d4c937f29e991974d0abda47af377e.svg

<?xml version="1.0" encoding="UTF-8" standalone="no"?>
<!-- Created with Inkscape (http://www.inkscape.org/) -->

<svg
   id="svg2"
   sodipodi:docname="red-flower-raphael-seban-01.svg"
   viewBox="0 0 140 131.65227"
   sodipodi:version="0.32"
   inkscape:version="1.2.2 (732a01da63, 2022-12-09)"
   version="1.1"
   width="140"
   height="131.65227"
   xmlns:inkscape="http://www.inkscape.org/namespaces/inkscape"
   xmlns:sodipodi="http://sodipodi.sourceforge.net/DTD/sodipodi-0.dtd"
   xmlns="http://www.w3.org/2000/svg"
   xmlns:svg="http://www.w3.org/2000/svg"
   xmlns:rdf="http://www.w3.org/1999/02/22-rdf-syntax-ns#"
   xmlns:cc="http://creativecommons.org/ns#"
   xmlns:dc="http://purl.org/dc/elements/1.1/">
  <defs
     id="defs3">
    <radialGradient
       id="radialGradient2115"
       gradientUnits="userSpaceOnUse"
       cy="56.507"
       cx="137.02"
       gradientTransform="scale(1.0171,0.98323)"
       r="450.92999"
       inkscape:collect="always">
      <stop
         id="stop2111"
         style="stop-color:#ffd200"
         offset="0" />
      <stop
         id="stop2117"
         style="stop-color:#ffdc00"
         offset="0.3" />
      <stop
         id="stop2135"
         style="stop-color:#ffaa00"
         offset=".50180" />
      <stop
         id="stop3703"
         style="stop-color:#ff7f00"
         offset=".65440" />
      <stop
         id="stop2113"
         style="stop-color:#ff5500"
         offset="1" />
    </radialGradient>
    <radialGradient
       id="radialGradient2943"
       fx="266.04999"
       fy="225.86"
       gradientUnits="userSpaceOnUse"
       cy="226.78"
       cx="266.42999"
       gradientTransform="matrix(0.40328396,0,0,0.32926293,26.259976,-9.6231341)"
       r="52.140999"
       inkscape:collect="always">
      <stop
         id="stop2937"
         style="stop-color:#ffffff"
         offset="0" />
      <stop
         id="stop2939"
         style="stop-color:#ffffff;stop-opacity:0"
         offset="1" />
    </radialGradient>
  </defs>
  <sodipodi:namedview
     id="base"
     bordercolor="#666666"
     inkscape:pageshadow="2"
     inkscape:window-width="1920"
     pagecolor="#ffffff"
     inkscape:zoom="1.0979167"
     inkscape:window-x="1912"
     borderopacity="1.0"
     inkscape:current-layer="layer1"
     inkscape:cx="242.27703"
     inkscape:cy="227.70398"
     inkscape:window-y="-8"
     inkscape:window-height="1017"
     inkscape:pageopacity="0.0"
     inkscape:document-units="px"
     inkscape:showpageshadow="2"
     inkscape:pagecheckerboard="0"
     inkscape:deskcolor="#d1d1d1"
     showgrid="false"
     inkscape:window-maximized="1" />
  <g
     id="layer1"
     inkscape:label="Layer 1"
     inkscape:groupmode="layer"
     transform="translate(-77.904424,-12.340243)">
    <path
       id="path1317"
       sodipodi:r2="373.42993"
       style="fill:url(#radialGradient2115);fill-rule:evenodd;stroke:#aa5500;stroke-width:2.4369;stroke-linecap:round;stroke-linejoin:round"
       sodipodi:type="star"
       d="M 370.62208,382.7892 C 595.38245,698.54447 897.32249,-12.414352 511.23895,21.616779 -156.6105,80.484018 250.22253,-190.34335 -28.400535,419.45778 -189.47244,771.98362 577.20599,677.99195 354.69239,360.64936 -30.212859,-188.29161 407.74704,28.622449 -259.66777,92.228359 -645.50005,128.99891 -180.76166,745.96607 -17.191714,394.59235 265.75249,-213.21586 296.87935,274.52557 -91.912391,-271.66965 -316.67276,-587.42493 -618.6128,123.5339 -232.52926,89.502766 435.32019,30.635527 28.487152,301.46289 307.11022,-308.33824 468.18213,-660.86407 -298.4963,-566.8724 -75.982704,-249.52981 308.92254,299.41116 -129.03735,82.497096 538.37746,18.891186 924.20973,-17.87937 459.47135,-634.84653 295.9014,-283.47281 12.957201,324.3354 -18.169661,-163.40603 370.62208,382.7892 Z"
       sodipodi:r1="400.70392"
       inkscape:flatsided="false"
       sodipodi:arg1="0.95555892"
       sodipodi:arg2="-0.091020843"
       transform="matrix(0.00378657,-0.11858759,0.11858759,0.00378657,140.78805,94.481754)"
       inkscape:randomized="0"
       sodipodi:cy="55.559772"
       sodipodi:cx="139.35484"
       inkscape:rounded="1"
       sodipodi:sides="6" />
    <circle
       id="path2119"
       style="fill:#ffff78;fill-rule:evenodd;stroke:#aa5500;stroke-width:0.79346;stroke-linecap:round;stroke-linejoin:round;stroke-opacity:0.43137"
       cx="147.90257"
       cy="78.165306"
       r="16.76112" />
    <path
       id="path2161"
       sodipodi:rx="16.76112"
       sodipodi:ry="16.76112"
       style="fill:url(#radialGradient2943);fill-rule:evenodd"
       sodipodi:type="arc"
       d="m 131.37246,80.938484 a 16.76112,16.76112 0 0 1 6.45797,-16.170455 16.76112,16.76112 0 0 1 17.32796,-1.711934 l -7.25582,15.109211 z"
       sodipodi:cy="78.165306"
       sodipodi:cx="147.90257"
       sodipodi:end="5.1600916"
       sodipodi:start="2.9753753"
       sodipodi:arc-type="slice" />
  </g>
  <metadata
     id="metadata1070">
    <rdf:RDF>
      <cc:Work>
        <dc:format>image/svg+xml</dc:format>
        <dc:type
           rdf:resource="http://purl.org/dc/dcmitype/StillImage" />
        <cc:license
           rdf:resource="http://creativecommons.org/licenses/publicdomain/" />
        <dc:publisher>
          <cc:Agent
             rdf:about="http://openclipart.org/">
            <dc:title>Openclipart</dc:title>
          </cc:Agent>
        </dc:publisher>
        <dc:title>red flower</dc:title>
        <dc:date>2010-04-14T00:23:58</dc:date>
        <dc:description>originally uploaded by Raphael Seban</dc:description>
        <dc:source>https://openclipart.org/detail/46861/red-flower-by-anonymous</dc:source>
        <dc:creator>
          <cc:Agent>
            <dc:title>Anonymous</dc:title>
          </cc:Agent>
        </dc:creator>
        <dc:subject>
          <rdf:Bag>
            <rdf:li>flora</rdf:li>
            <rdf:li>flower</rdf:li>
            <rdf:li>plant</rdf:li>
            <rdf:li>red</rdf:li>
          </rdf:Bag>
        </dc:subject>
      </cc:Work>
      <cc:License
         rdf:about="http://creativecommons.org/licenses/publicdomain/">
        <cc:permits
           rdf:resource="http://creativecommons.org/ns#Reproduction" />
        <cc:permits
           rdf:resource="http://creativecommons.org/ns#Distribution" />
        <cc:permits
           rdf:resource="http://creativecommons.org/ns#DerivativeWorks" />
      </cc:License>
    </rdf:RDF>
  </metadata>
</svg>

<svg width="140" height="131.652" xmlns="http://www.w3.org/2000/svg"><defs><radialGradient id="prefix__a" gradientUnits="userSpaceOnUse" cy="56.507" cx="137.02" gradientTransform="scale(1.0171 .98323)" r="450.93"><stop offset="0" stop-color="#ffd200"/><stop offset=".3" stop-color="#ffdc00"/><stop offset=".502" stop-color="#fa0"/><stop offset=".654" stop-color="#ff7f00"/><stop offset="1" stop-color="#f50"/></radialGradient><radialGradient id="prefix__b" fx="266.05" fy="225.86" gradientUnits="userSpaceOnUse" cy="226.78" cx="266.43" gradientTransform="matrix(.40328 0 0 .32926 26.26 -9.623)" r="52.141"><stop offset="0" stop-color="#fff"/><stop offset="1" stop-color="#fff" stop-opacity="0"/></radialGradient></defs><g transform="translate(-77.904 -12.34)" fill-rule="evenodd"><path d="M370.622 382.79c224.76 315.754 526.7-395.204 140.617-361.173-667.85 58.867-261.016-211.96-539.64 397.84-161.071 352.527 605.607 258.535 383.093-58.808-384.905-548.94 53.055-332.027-614.36-268.42-385.832 36.77 78.906 653.737 242.476 302.363C265.752-213.216 296.88 274.526-91.912-271.67c-224.76-315.755-526.7 395.204-140.617 361.173 667.85-58.867 261.016 211.96 539.64-397.841C468.181-660.864-298.497-566.872-75.984-249.53c384.906 548.941-53.054 332.027 614.36 268.421 385.833-36.77-78.906-653.738-242.476-302.364C12.957 324.335-18.169-163.406 370.622 382.79z" transform="rotate(-88.171 119.169 -25.436) scale(.11865)" fill="url(#prefix__a)" stroke="#a50" stroke-width="2.437" stroke-linecap="round" stroke-linejoin="round"/><circle cx="147.903" cy="78.165" r="16.761" fill="#ffff78" stroke="#a50" stroke-width=".793" stroke-linecap="round" stroke-linejoin="round" stroke-opacity=".431"/><path d="M131.372 80.938a16.761 16.761 0 016.458-16.17 16.761 16.761 0 0117.328-1.712l-7.255 15.11z" fill="url(#prefix__b)"/></g></svg>
